X: 7
T: Jimmy Ward's
R: jig
M: 6/8
L: 1/8
K: Amix
A3 ABc|BAF AFE|AAA BAF|AFE E2F|AAA ABc|BAF ABc|dcB cAF|1 EFE EFE:|2 EFE E2E||dcB cBA|BcB BAF|dcB cAF|EFE EFA|dcB cBA|BBA Bcd|edB BAF|1 AFE E2c :|2 AFE EFG||


Tune 793	Setting 17241

